<?xml version="1.0" encoding="UTF-8"?>
<map version="1.10" tiledversion="1.11.2" orientation="staggered" renderorder="right-down" width="128" height="128" tilewidth="32" tileheight="32" infinite="0" staggeraxis="y" staggerindex="odd" nextlayerid="3" nextobjectid="1">
 <tileset firstgid="1" name="chao1" tilewidth="32" tileheight="32" tilecount="1" columns="1">
  <image source="C:/Users/antho/Downloads/chao1.png" width="32" height="32"/>
 </tileset>
 <tileset firstgid="2" name="chao2" tilewidth="32" tileheight="32" tilecount="1" columns="1">
  <image source="C:/Users/antho/Downloads/chao2.png" width="32" height="32"/>
 </tileset>
 <tileset firstgid="3" name="chao" tilewidth="32" tileheight="32" tilecount="2" columns="0">
  <grid orientation="orthogonal" width="1" height="1"/>
  <tile id="0">
   <image source="C:/Users/antho/Downloads/chao2.png" width="32" height="32"/>
  </tile>
  <tile id="1">
   <image source="C:/Users/antho/Downloads/chao1.png" width="32" height="32"/>
  </tile>
 </tileset>
 <layer id="1" name="Camada de Blocos 1" width="128" height="128">
  <data encoding="csv">
4,4,3,3,4,4,3,3,4,3,3,4,3,4,4,4,3,3,4,4,4,3,4,3,4,3,4,4,3,3,4,4,3,3,3,4,3,3,4,4,3,4,4,4,3,4,4,3,4,4,4,3,3,3,3,4,4,3,4,3,4,4,4,4,3,3,4,4,3,4,3,3,4,4,4,4,3,4,3,3,3,3,3,4,3,4,4,3,4,4,4,3,3,3,4,3,3,4,3,4,3,3,4,4,4,4,4,3,4,4,3,3,3,3,3,3,4,3,3,3,3,3,4,4,3,3,3,3,
4,3,4,3,4,3,4,3,3,4,4,3,3,3,4,3,4,3,4,4,3,4,4,4,3,3,4,4,3,3,4,4,4,3,4,4,4,3,4,4,3,3,4,4,4,4,3,3,4,3,4,3,3,4,3,3,4,4,4,4,4,4,3,4,3,3,3,4,4,4,4,4,4,3,4,4,4,3,4,4,4,3,3,4,3,3,3,4,4,3,3,4,4,3,4,3,3,3,4,3,4,4,4,3,3,4,3,3,3,4,3,4,3,4,3,4,4,3,3,4,3,4,4,4,3,4,4,4,
4,4,4,3,3,4,4,4,3,4,4,3,4,4,3,3,3,3,4,4,4,4,4,4,4,3,4,3,3,4,3,3,4,4,3,4,3,3,4,4,4,4,4,4,3,3,4,4,3,4,4,3,4,4,4,4,4,3,4,3,3,4,4,3,3,3,4,3,3,4,3,4,4,3,3,4,3,4,4,4,4,4,4,4,3,4,4,3,4,4,4,3,4,3,3,3,3,4,3,4,4,4,4,4,4,4,4,4,3,4,3,4,4,3,4,3,3,4,4,4,3,3,4,4,3,3,3,3,
4,3,4,4,4,4,4,3,4,3,4,3,3,4,4,4,3,3,4,3,3,3,4,4,3,3,3,4,4,4,3,4,4,4,3,3,3,4,4,3,3,4,4,4,3,4,4,4,4,3,3,4,3,4,3,3,4,4,4,4,4,3,4,4,4,3,4,4,4,3,4,4,4,4,4,3,3,4,4,3,4,4,4,3,3,4,4,3,3,3,4,4,4,3,3,3,4,4,4,4,3,4,3,4,3,4,4,4,4,4,3,3,4,3,3,4,4,3,3,3,3,4,4,4,4,3,4,4,
3,3,3,3,3,4,4,4,3,3,3,3,4,3,3,4,4,4,3,3,3,3,4,3,3,3,4,3,4,3,3,3,4,3,4,4,4,4,4,4,4,3,3,3,3,4,3,4,4,4,4,3,4,3,3,4,3,4,4,3,3,3,3,4,4,3,3,4,4,3,4,4,4,4,3,4,3,4,4,3,3,3,4,4,3,4,4,4,4,4,3,4,4,4,4,4,3,4,3,3,4,4,4,4,3,4,4,3,4,4,4,3,3,4,3,4,3,4,4,3,3,3,4,4,3,4,4,4,
4,4,3,4,3,4,4,4,4,4,3,3,4,4,4,4,3,4,3,3,4,3,3,4,4,4,3,4,4,4,3,4,3,4,4,3,3,3,4,4,4,3,3,4,3,4,3,4,4,3,4,3,3,4,4,4,3,4,3,3,4,3,3,3,3,3,3,3,4,3,3,4,4,3,3,3,4,3,4,3,3,3,4,3,3,3,4,3,3,4,3,3,4,3,4,3,4,4,3,4,3,4,3,4,3,3,4,4,4,3,3,3,4,4,3,4,3,4,3,4,3,3,3,4,4,4,3,4,
3,4,3,3,4,4,4,4,4,3,3,3,3,4,3,3,4,3,3,4,4,3,4,4,4,3,4,3,3,3,4,3,4,4,3,3,3,4,4,3,4,4,3,3,3,4,4,3,4,4,4,3,4,3,4,4,4,3,3,3,3,3,4,4,4,3,3,3,4,4,3,3,3,3,3,3,4,4,3,4,4,3,4,3,4,4,4,4,3,4,3,3,4,3,4,3,4,3,4,3,3,4,4,4,3,3,3,3,4,4,4,4,3,4,3,3,4,4,4,3,4,3,3,3,4,3,3,4,
3,4,4,3,4,4,3,3,4,3,4,3,4,4,3,4,4,3,3,3,4,3,3,4,4,4,3,4,4,3,3,4,4,4,4,3,3,4,4,4,4,4,3,3,3,4,3,3,3,3,4,3,4,3,4,4,3,3,3,4,3,4,4,4,4,3,3,3,3,4,3,3,3,3,4,4,4,3,4,3,3,4,3,3,4,4,3,3,3,4,4,4,4,4,3,3,3,3,4,4,4,4,4,3,4,4,4,4,4,4,3,3,3,3,4,3,3,4,4,3,3,4,4,3,3,4,4,3,
3,4,4,3,4,3,4,3,4,3,3,3,3,4,4,4,3,3,3,3,4,3,3,3,4,3,3,4,4,3,3,4,3,3,3,4,3,3,3,4,3,4,3,4,4,4,3,3,3,3,3,4,4,4,4,3,3,3,3,3,4,3,3,3,3,4,4,3,3,4,4,4,3,4,4,4,4,4,4,4,4,3,4,3,4,3,3,3,3,4,3,3,3,4,3,3,4,3,4,3,4,3,3,3,3,4,3,3,3,3,3,3,4,4,4,4,3,4,3,4,4,3,3,4,3,3,3,3,
4,4,3,3,3,3,3,4,4,3,4,3,3,3,4,3,3,4,3,3,3,4,3,3,4,3,3,3,4,4,3,4,4,4,4,3,4,3,4,3,4,4,3,4,3,3,3,3,4,3,3,3,3,3,4,4,4,4,3,4,4,3,3,3,3,4,4,3,3,3,4,4,4,4,4,3,3,4,3,3,3,4,4,4,4,4,4,4,4,3,4,3,3,4,3,3,4,3,3,4,4,4,4,4,4,3,4,4,3,4,3,3,4,4,3,4,4,3,3,4,4,3,4,3,3,3,4,3,
3,3,3,4,3,4,4,4,3,4,3,3,4,3,3,3,4,3,3,4,3,4,3,4,3,3,4,4,3,3,4,3,4,3,4,4,3,4,3,3,4,3,3,4,3,3,4,4,3,3,4,3,3,4,4,3,3,4,3,3,3,3,4,4,3,3,3,3,4,3,4,3,3,4,3,4,4,4,4,4,4,4,3,3,4,3,4,4,3,3,3,4,4,4,3,4,4,4,4,4,3,3,3,4,3,4,4,4,3,4,3,4,4,4,4,3,4,3,4,3,3,3,4,4,3,4,4,4,
4,3,3,3,4,4,4,4,3,3,4,3,4,3,4,4,4,4,4,3,3,4,4,4,3,3,4,4,3,4,3,3,3,4,4,4,3,3,3,4,3,4,3,4,4,4,4,4,3,3,3,4,3,3,4,3,3,3,4,4,4,3,4,3,4,4,4,3,3,4,4,4,4,4,3,4,3,3,3,3,3,3,3,3,4,4,3,4,3,4,3,3,4,3,4,4,3,3,3,3,4,3,4,3,3,3,4,4,3,4,4,4,4,3,4,3,3,3,4,4,3,4,3,3,3,4,4,4,
4,3,3,4,3,4,3,3,3,3,3,3,3,3,3,4,3,3,3,3,4,3,4,4,3,4,4,3,4,3,4,4,4,3,3,4,3,3,4,3,4,4,4,4,3,3,4,4,4,3,4,3,4,4,4,4,3,4,4,3,3,4,3,3,3,3,4,3,4,4,3,4,4,3,4,4,4,4,4,3,3,4,3,4,4,3,3,3,3,4,4,4,3,3,4,4,3,4,4,3,3,4,4,3,4,3,4,4,4,4,3,4,3,4,4,3,4,4,4,3,4,4,4,3,3,4,4,3,
4,4,3,3,4,3,4,4,3,3,3,3,3,4,4,3,4,4,4,3,3,3,3,3,4,3,4,4,4,4,3,4,4,3,3,4,3,4,3,3,4,3,3,4,4,3,3,4,3,3,4,3,4,3,3,4,3,3,4,3,4,4,3,3,4,3,4,4,3,3,4,3,4,3,4,3,4,3,3,3,3,4,4,4,4,3,4,4,4,4,4,3,4,3,3,3,3,3,3,3,3,3,4,4,3,4,4,4,4,4,3,4,3,4,3,4,3,4,3,3,4,4,4,4,4,4,4,3,
4,4,3,4,4,3,3,3,3,4,4,3,3,4,4,4,3,3,4,4,3,4,4,4,4,3,4,3,4,3,3,3,3,3,3,3,4,4,4,3,4,4,4,4,3,3,4,3,4,4,4,3,4,4,3,4,3,4,3,3,3,3,4,4,4,3,4,3,4,3,3,3,3,4,3,4,3,3,3,4,4,3,3,4,4,4,4,4,4,4,3,4,3,4,4,4,4,3,3,4,4,3,4,4,3,3,4,4,3,4,4,4,3,4,3,4,4,4,4,3,4,3,3,4,3,4,4,4,
4,4,4,3,4,3,4,3,4,3,3,4,3,3,3,4,4,3,3,3,4,4,3,4,4,3,3,4,3,4,4,3,4,3,3,4,4,4,3,3,4,3,3,3,3,3,4,4,3,3,4,3,4,3,4,3,3,4,3,4,3,3,4,3,4,4,3,3,3,4,4,4,3,3,3,4,4,4,4,4,4,4,4,4,4,4,4,4,3,4,4,4,4,3,4,3,3,3,3,4,4,4,3,3,4,3,3,4,4,4,3,3,4,4,3,3,4,4,4,4,3,4,3,4,3,4,4,4,
4,3,3,3,4,3,4,4,3,3,4,3,4,3,3,3,3,4,3,3,3,3,4,4,4,4,4,3,3,4,4,4,3,4,4,4,4,3,4,3,4,4,3,3,3,4,4,3,4,4,3,3,3,4,3,4,4,4,4,4,4,3,3,3,4,4,3,4,4,3,3,4,3,4,3,4,3,4,3,3,3,4,4,3,3,4,4,4,3,4,4,4,3,3,4,3,4,4,3,3,3,4,3,4,3,4,3,3,4,4,3,4,3,3,3,3,4,4,4,3,3,3,3,3,3,3,4,3,
3,4,4,4,3,3,4,4,4,3,3,3,4,4,4,4,3,4,3,3,3,4,4,3,4,4,3,3,3,4,4,3,4,3,4,4,4,3,3,3,3,4,3,3,3,4,3,3,4,3,4,3,3,3,4,4,3,4,3,4,3,3,4,3,3,4,4,4,3,3,3,4,3,3,3,4,3,3,3,4,3,3,3,3,4,3,3,3,4,4,4,4,4,3,4,3,4,3,3,4,3,4,3,4,3,3,4,4,4,3,3,4,3,3,3,3,4,4,4,3,4,4,3,4,4,3,3,4,
3,3,3,4,3,3,4,4,3,4,3,4,4,3,4,3,3,4,4,4,3,3,3,3,4,3,4,4,3,3,4,3,4,3,4,3,3,3,4,4,4,3,4,3,3,3,3,4,4,3,3,3,4,3,4,3,3,3,3,4,3,4,4,4,3,3,3,4,4,4,4,4,3,4,4,3,3,4,4,4,4,3,4,3,4,4,3,3,3,3,3,4,3,4,3,4,4,3,4,3,3,3,3,3,4,3,3,3,3,3,4,3,4,4,3,4,3,3,4,4,3,4,3,3,3,4,3,4,
3,4,3,3,3,4,4,3,4,4,3,3,4,4,4,3,4,3,3,3,4,3,4,4,4,4,3,4,3,3,3,4,4,4,4,3,3,4,4,3,4,3,3,4,3,3,3,3,4,3,4,4,4,4,3,4,4,4,4,3,3,3,4,4,3,4,3,3,3,4,4,4,3,3,4,3,3,4,3,3,3,4,4,3,4,4,3,3,4,3,4,3,4,4,3,3,4,3,3,4,4,3,3,4,4,3,4,4,4,3,3,3,4,4,3,3,4,3,3,4,3,3,3,4,4,3,3,4,
3,4,3,4,3,3,4,4,4,3,3,3,3,4,4,4,3,3,3,4,4,4,4,3,3,3,3,4,3,3,3,4,3,3,4,4,4,4,4,3,3,3,3,3,3,3,4,4,3,3,4,4,4,4,4,4,4,4,4,3,3,3,4,3,4,4,3,4,3,3,4,4,4,3,4,4,4,4,3,4,4,3,3,4,4,4,3,4,3,3,3,3,4,3,3,3,3,4,4,4,3,3,4,3,3,4,3,3,4,3,4,3,4,3,4,3,4,4,4,4,4,4,4,3,4,3,4,4,
3,3,4,3,3,3,3,3,4,3,3,4,4,3,4,4,4,4,3,4,3,3,3,3,4,4,3,3,3,3,4,3,3,4,4,3,4,3,3,4,4,3,3,4,4,3,4,3,4,4,3,3,3,4,3,3,4,3,3,3,4,3,3,3,4,3,4,3,3,3,3,3,4,4,4,3,3,3,4,4,3,4,4,4,3,4,4,3,4,4,4,4,4,3,4,4,4,4,3,4,4,4,3,3,3,4,3,3,4,3,3,3,3,3,4,3,4,3,3,4,3,4,4,4,3,3,3,3,
3,3,4,4,4,4,3,4,3,4,3,4,3,4,4,4,4,4,4,3,3,3,4,3,4,3,3,3,4,4,3,4,3,4,3,3,3,4,3,3,3,4,3,3,3,4,4,4,4,4,3,3,3,4,4,3,3,3,3,4,3,3,4,4,4,3,4,3,4,4,3,3,3,4,4,4,3,4,4,3,3,3,3,4,3,4,3,4,3,4,4,4,3,3,3,4,3,3,3,3,4,3,3,3,3,3,4,4,3,4,4,3,4,4,3,4,4,3,4,3,3,3,3,4,3,4,3,4,
4,3,3,3,4,4,3,3,3,3,3,3,4,4,3,3,3,4,3,3,3,3,3,4,3,3,3,3,3,3,4,4,3,4,4,3,4,4,3,4,3,3,4,3,4,3,3,4,3,3,3,3,3,4,4,3,3,3,3,3,4,3,3,3,3,4,3,3,4,4,3,3,4,3,4,3,3,3,4,4,3,4,3,4,4,4,4,3,4,3,3,4,3,3,3,3,4,4,3,3,4,3,3,3,4,3,3,4,4,3,3,3,4,3,4,3,4,4,3,4,3,4,3,4,3,3,3,3,
4,4,4,3,3,4,3,3,3,4,3,3,3,3,4,4,3,4,4,3,3,3,4,4,3,4,4,3,3,4,3,4,3,4,3,3,3,3,4,4,4,4,3,4,4,3,3,3,3,4,4,3,4,3,4,3,4,3,4,4,3,4,4,3,3,3,4,3,3,4,4,4,4,4,3,3,3,4,3,3,4,3,4,4,4,3,4,4,4,3,3,4,4,4,4,3,3,3,4,4,4,3,4,3,4,3,4,4,3,4,4,3,4,4,3,3,4,3,3,3,4,4,4,4,3,4,4,3,
4,3,3,4,3,4,4,3,4,4,4,3,4,4,4,4,4,4,3,3,3,4,4,4,3,4,3,3,4,4,4,3,4,3,4,4,4,3,4,4,4,4,3,3,4,3,4,4,4,3,3,4,4,3,4,3,4,3,3,4,4,4,3,3,3,3,4,3,4,4,4,4,4,3,4,3,4,4,3,4,3,3,4,4,3,4,3,4,3,4,4,4,3,4,3,4,3,4,4,4,3,3,3,3,4,3,3,4,3,4,3,3,3,4,4,4,4,3,4,4,4,4,3,4,4,3,3,3,
3,3,4,3,3,4,3,4,3,4,4,3,3,3,4,4,4,3,4,3,4,3,4,4,4,3,3,4,3,4,3,4,4,3,4,4,3,3,4,4,4,4,3,3,4,3,3,3,4,3,4,3,4,4,4,4,3,3,3,4,4,3,4,3,4,4,3,3,4,3,4,4,4,3,4,4,4,3,4,3,4,4,3,3,4,3,4,3,4,3,4,4,3,3,3,3,3,3,4,4,4,4,4,4,4,4,4,3,3,3,4,4,3,4,3,4,3,4,4,3,4,3,4,4,4,4,4,4,
4,4,3,4,3,4,4,4,4,4,4,3,3,3,4,4,3,3,3,3,3,4,3,3,4,3,4,4,3,4,4,3,3,3,4,3,4,4,4,4,3,3,4,4,3,4,3,3,3,4,3,3,3,4,3,3,4,4,3,3,3,4,3,4,3,3,3,3,4,4,3,4,3,4,3,3,4,4,3,4,3,3,4,3,4,4,4,3,3,3,4,4,3,3,4,4,3,4,4,3,4,3,4,3,4,4,4,4,4,4,4,3,4,3,4,3,3,4,3,3,3,4,3,3,4,3,4,3,
3,4,4,3,4,3,4,4,3,4,3,4,3,3,3,3,3,4,4,4,4,4,4,4,4,4,4,4,3,3,4,3,4,4,3,4,4,4,4,4,3,3,3,3,4,3,4,3,4,4,3,3,4,3,4,4,4,3,4,3,4,4,4,3,4,3,3,4,4,4,4,4,3,4,4,4,4,3,3,3,4,4,4,3,4,3,4,4,3,4,3,3,3,3,3,4,3,4,3,3,3,3,4,4,3,4,4,4,4,3,3,3,4,4,4,4,3,4,3,3,3,3,3,3,4,4,3,4,
4,4,3,4,4,4,3,4,4,4,3,3,3,4,3,4,3,4,4,3,3,3,3,4,4,3,3,3,4,4,4,3,4,3,4,4,4,3,4,4,4,3,3,4,4,4,4,4,4,4,3,4,3,4,4,4,3,4,3,3,4,4,4,4,4,3,4,3,4,4,4,3,4,3,4,3,3,4,3,4,3,4,4,3,3,4,3,4,3,3,4,4,3,4,4,4,3,4,4,3,3,4,3,4,4,3,3,3,4,3,4,4,4,4,4,4,4,3,4,4,4,4,3,3,3,3,4,4,
3,4,3,4,3,4,4,3,4,3,3,3,3,3,4,3,4,4,3,4,3,3,3,4,4,4,4,3,3,4,4,4,4,3,3,3,3,3,3,3,4,4,4,3,4,4,3,4,4,3,4,3,4,3,4,4,4,4,3,4,3,4,4,4,3,3,3,4,4,4,4,3,3,3,4,4,4,3,4,3,4,4,3,3,3,3,4,4,3,4,4,3,3,4,4,3,4,4,3,4,4,3,4,3,4,4,4,4,3,3,4,3,4,3,4,4,3,4,3,4,3,4,4,3,4,3,3,4,
3,4,3,3,4,3,4,3,3,3,4,4,3,4,3,3,4,3,4,3,3,4,4,3,3,4,3,3,4,3,4,3,4,4,4,3,4,4,4,3,4,4,3,4,4,4,3,3,4,4,3,4,4,3,3,3,3,3,3,3,3,3,3,3,4,3,4,3,3,4,4,4,3,4,3,3,4,3,4,4,3,3,4,3,4,4,3,4,3,4,3,3,3,3,4,4,3,4,3,3,3,4,4,3,4,3,3,4,4,4,4,4,4,3,3,3,3,4,4,4,4,4,3,4,3,4,3,3,
3,4,4,4,4,4,3,3,3,3,3,4,4,4,4,3,4,3,4,4,4,3,4,4,3,4,3,4,3,4,4,4,4,4,3,3,3,4,3,4,3,4,4,3,4,3,3,4,4,3,3,4,4,3,4,4,4,4,4,4,4,4,3,3,3,3,3,4,3,3,4,4,3,4,3,3,4,3,3,3,3,4,3,3,4,4,3,3,3,3,3,4,3,3,3,3,3,4,4,3,4,3,3,3,4,3,4,3,3,3,4,4,4,4,4,3,4,4,3,4,3,4,3,4,4,4,4,3,
3,3,3,4,3,4,4,3,3,4,4,3,3,4,3,4,3,3,3,4,4,4,4,4,4,4,4,3,3,4,4,4,4,4,3,4,4,4,4,4,4,4,3,4,4,4,4,4,3,3,3,4,3,4,4,4,4,3,3,4,3,3,4,4,4,3,4,4,3,4,3,3,3,4,4,4,3,4,4,3,4,4,3,3,3,3,3,3,4,3,4,4,3,3,3,4,3,3,3,4,4,3,3,4,4,3,4,3,4,3,3,3,4,3,4,3,3,3,4,4,3,4,3,4,3,3,4,3,
4,3,3,3,4,3,3,4,4,4,4,3,4,4,4,4,3,3,3,3,4,3,4,4,4,3,4,4,3,3,4,4,4,4,4,3,3,3,3,4,4,4,4,4,3,4,3,4,4,4,4,4,3,3,4,4,4,4,3,4,3,3,3,3,4,3,4,3,4,4,3,3,4,4,4,4,4,3,3,4,4,3,3,4,4,3,3,3,4,4,4,3,3,4,3,3,4,3,3,4,3,4,3,4,4,3,3,3,3,4,3,4,3,3,3,4,4,4,4,3,4,4,4,3,3,4,3,3,
3,4,3,3,3,3,4,4,3,4,3,4,3,4,3,4,3,3,4,3,4,3,4,3,3,3,3,4,3,3,3,3,4,4,3,4,4,3,4,4,3,3,3,4,3,3,4,3,3,3,4,4,4,3,3,4,3,3,3,4,4,3,3,3,4,4,4,4,3,4,4,3,4,3,4,3,3,3,3,4,3,3,4,3,4,3,3,3,4,4,3,3,4,4,3,4,4,4,3,4,3,4,4,3,4,3,4,3,4,3,4,4,4,3,4,3,4,4,3,3,3,4,4,3,3,3,3,3,
3,4,3,4,4,3,4,4,3,4,4,4,3,3,3,3,3,3,3,3,4,4,3,4,3,4,3,4,3,3,4,3,4,3,4,4,4,4,3,3,3,4,4,4,4,3,4,4,4,3,4,4,3,3,4,3,4,3,4,4,4,4,3,3,3,3,3,3,4,3,3,4,3,3,4,3,4,3,3,3,3,3,4,4,4,3,3,3,4,3,4,4,3,4,3,4,4,3,3,4,3,4,3,4,3,3,3,3,4,4,3,4,3,3,4,3,4,3,4,4,3,3,3,4,4,4,3,3,
4,4,3,3,4,4,4,3,4,3,4,4,4,4,3,3,3,3,3,4,3,3,4,3,3,4,4,4,4,4,3,3,4,3,3,4,3,3,3,3,4,3,4,3,4,4,3,3,3,3,4,4,3,3,4,3,4,3,3,3,3,3,3,3,3,3,3,4,3,4,4,4,3,3,3,3,3,3,4,3,3,4,3,3,3,3,4,3,4,4,3,4,3,4,3,3,4,3,3,4,3,3,4,3,3,4,4,3,4,4,4,4,4,3,3,4,3,3,3,3,4,4,4,4,4,4,3,3,
3,3,4,3,3,4,4,3,3,4,4,4,3,4,3,4,4,4,4,3,4,4,3,3,3,4,4,4,4,4,3,4,3,4,4,3,3,4,3,3,3,3,3,3,4,3,4,4,4,3,3,3,4,4,3,4,4,3,4,4,3,4,3,4,3,3,3,3,3,3,3,4,4,4,3,4,3,3,4,4,4,3,4,3,4,3,4,3,3,3,3,4,4,3,3,3,4,3,4,4,3,4,3,3,4,4,3,4,4,4,3,3,3,4,4,3,4,3,3,3,4,4,3,4,4,3,3,3,
4,4,4,3,4,3,4,4,3,3,4,3,3,3,3,3,4,3,3,3,3,3,3,3,3,3,3,3,3,3,3,3,3,3,3,3,3,3,3,3,4,3,4,4,4,3,3,4,3,3,4,3,4,4,3,3,3,4,3,4,3,4,3,4,3,4,4,4,4,4,3,4,3,4,4,4,4,4,3,3,4,3,4,4,3,4,4,3,3,3,3,4,3,3,3,3,4,3,3,4,3,4,4,3,4,4,3,3,3,4,4,4,3,3,4,3,4,4,3,4,3,4,3,4,4,3,4,3,
4,4,3,3,4,3,3,4,4,4,3,3,3,3,4,3,3,4,4,4,3,3,3,4,3,4,3,4,4,3,3,4,3,4,4,4,3,3,4,3,3,3,3,3,3,3,4,4,4,3,3,3,3,3,4,3,4,3,4,3,3,4,4,4,3,4,3,3,4,4,3,4,3,3,4,4,3,4,3,4,4,3,4,4,3,3,3,3,4,4,3,4,3,4,4,4,3,4,4,4,4,3,4,4,3,3,4,4,4,4,3,3,3,4,4,3,4,4,3,3,3,4,4,4,3,3,3,4,
3,4,3,3,3,4,3,3,3,3,3,4,3,3,3,3,4,4,3,4,4,3,4,4,3,4,4,3,3,4,4,3,4,4,4,4,4,3,4,3,3,4,4,4,4,3,4,4,3,3,4,3,4,4,3,3,4,3,4,3,4,3,3,4,4,4,4,4,4,3,3,4,4,4,4,3,4,4,4,3,3,3,4,3,3,3,3,3,3,4,4,4,3,3,4,3,4,4,3,3,4,3,3,3,4,3,3,3,4,3,4,4,3,4,3,4,3,3,4,4,4,3,4,3,3,3,4,4,
3,3,3,4,4,3,4,4,4,4,3,4,3,3,3,3,4,3,4,4,3,4,3,4,3,4,4,4,3,4,3,4,3,4,4,3,4,3,4,3,3,3,3,3,3,3,3,3,4,4,4,3,4,4,4,3,4,3,3,3,3,3,3,4,4,3,3,4,3,3,3,3,4,4,4,3,4,3,4,3,3,4,4,4,3,3,4,3,4,4,4,3,4,3,3,4,3,3,3,4,4,3,4,4,3,3,3,4,4,4,3,4,4,3,4,3,3,3,3,3,4,3,4,4,4,4,4,4,
3,3,4,3,3,3,4,4,4,3,4,4,4,3,3,3,3,4,4,3,3,3,4,4,3,3,3,4,3,4,4,4,3,4,3,4,3,4,3,4,3,3,3,3,3,3,3,4,3,4,4,4,3,4,4,4,3,4,4,3,4,3,3,4,4,3,3,3,4,4,4,3,3,3,3,4,4,3,3,4,3,3,3,3,3,3,3,4,4,4,4,3,3,4,4,3,4,3,3,3,3,4,3,3,4,3,3,3,4,4,3,4,3,4,3,3,4,4,3,3,3,3,4,4,3,4,3,4,
4,3,3,3,4,4,3,3,4,4,4,4,4,4,3,4,4,3,3,4,4,4,3,4,3,4,4,4,4,3,4,4,4,3,4,4,3,3,4,3,4,4,4,4,3,3,3,4,4,3,4,4,3,4,4,4,4,4,3,4,4,4,3,4,3,3,3,3,4,4,4,3,3,4,3,4,4,3,3,4,3,4,4,3,3,3,3,3,3,3,4,3,4,3,3,3,3,3,4,3,4,3,3,3,3,3,4,3,4,4,3,3,4,4,4,3,3,3,4,4,3,4,3,4,3,4,4,3,
3,4,3,4,4,3,4,3,4,4,4,4,3,4,3,3,4,3,3,4,3,3,3,3,4,4,3,3,3,3,4,3,4,3,4,3,4,3,4,4,4,3,4,3,3,4,3,3,4,3,4,3,4,4,4,3,4,4,3,3,4,4,4,3,3,4,3,3,4,4,4,4,4,3,4,4,4,4,3,4,3,4,4,4,4,3,3,3,3,3,4,4,4,3,3,3,3,3,4,3,3,4,4,4,3,4,3,3,4,4,4,4,4,4,4,3,4,4,3,4,4,4,3,3,3,3,4,4,
4,4,4,3,3,3,4,3,3,4,3,3,3,3,3,4,4,4,4,4,4,4,4,3,3,4,3,4,3,3,4,3,3,3,4,3,4,3,3,3,3,3,4,3,3,3,4,4,4,4,4,4,4,3,3,3,4,4,4,4,4,3,3,4,4,3,3,3,3,3,3,3,4,3,3,3,3,4,4,3,4,4,4,4,3,4,3,4,4,3,4,3,4,3,3,4,4,3,4,4,4,3,3,4,3,3,4,3,3,4,3,4,3,4,4,4,3,4,4,4,4,4,4,4,3,3,3,4,
3,4,3,3,4,4,4,3,4,4,4,4,3,3,3,3,3,3,4,4,4,4,4,4,4,3,3,3,3,4,4,4,3,3,4,4,3,4,4,4,4,4,3,4,4,3,4,3,4,4,3,3,3,4,3,3,3,4,3,4,4,4,3,4,4,4,4,4,3,4,3,4,4,3,3,3,3,4,4,4,3,3,3,3,4,4,3,4,4,3,4,4,3,3,4,4,3,3,4,4,3,3,3,3,3,4,3,3,4,4,4,3,3,3,4,4,4,4,3,3,3,3,3,4,3,4,3,3,
3,4,3,4,4,3,4,4,3,4,4,3,4,4,3,4,3,3,3,4,4,3,3,3,4,4,4,4,4,3,4,4,4,4,4,4,4,3,3,3,3,4,3,3,3,4,3,3,3,3,4,4,3,4,4,4,3,3,4,3,4,4,3,3,3,3,4,3,3,4,3,3,3,4,4,4,3,4,3,4,4,3,3,4,3,3,4,4,4,4,3,4,4,3,4,4,3,3,4,3,4,3,3,4,4,4,3,3,3,4,3,3,3,3,3,3,3,4,4,4,3,4,3,3,4,3,4,4,
4,4,3,3,3,4,4,3,3,4,4,3,3,4,4,3,3,3,3,4,4,3,3,4,3,3,3,3,3,4,3,4,4,3,3,3,4,4,4,3,4,4,4,3,4,3,4,4,3,4,4,4,3,3,4,4,3,3,3,3,4,4,3,3,4,3,3,4,3,4,4,4,4,3,3,4,3,4,3,3,3,3,3,4,4,3,3,4,3,4,4,4,3,3,3,3,4,4,3,3,4,3,4,4,4,4,3,4,4,4,4,4,4,4,3,3,3,4,3,4,3,4,4,4,3,4,3,3,
3,3,3,4,4,4,4,4,4,3,3,3,4,4,3,4,4,3,3,3,4,4,3,4,4,3,3,4,4,4,3,4,3,4,3,4,4,4,3,3,4,4,4,4,4,3,4,3,4,3,4,4,4,3,3,4,4,4,3,4,3,4,4,4,3,3,3,3,3,3,4,4,3,3,4,3,4,4,4,4,3,3,3,3,4,4,4,4,4,4,3,3,4,3,4,4,4,4,3,4,3,4,3,4,3,3,3,3,4,4,4,3,3,4,4,3,4,4,4,3,3,3,4,4,4,4,4,3,
4,3,4,4,4,3,3,3,4,4,3,3,3,4,3,3,3,4,3,3,3,3,4,4,3,4,3,4,4,4,4,4,4,3,3,3,4,3,3,4,3,4,4,3,3,3,4,3,3,3,4,4,4,3,4,3,4,3,4,3,4,4,3,4,4,4,3,3,3,4,4,3,3,4,4,4,4,3,3,3,3,3,4,4,4,4,4,3,3,4,3,3,4,4,4,4,3,4,3,4,3,3,3,3,4,4,4,3,3,4,3,4,3,3,3,3,4,4,3,3,3,4,3,3,3,3,3,4,
3,4,3,3,3,4,3,3,3,3,3,3,3,3,3,3,4,3,3,3,3,4,4,4,4,4,4,4,3,3,4,3,3,3,3,3,4,3,4,3,4,3,3,4,3,3,4,4,3,4,3,4,3,3,3,4,4,3,4,4,3,4,4,4,4,3,3,3,4,4,3,4,3,4,4,4,4,3,3,3,3,3,4,3,4,3,3,4,3,3,4,3,4,3,3,3,3,4,3,3,4,3,4,3,3,3,4,3,3,4,3,4,3,4,4,3,3,3,3,4,4,4,4,4,3,4,3,3,
3,3,3,3,4,4,4,3,3,3,4,4,3,4,3,4,4,3,3,4,4,4,4,4,4,4,4,4,3,4,3,3,3,4,4,4,3,3,4,4,3,4,3,4,4,3,4,4,3,4,3,3,3,3,3,4,4,4,4,3,4,3,3,4,3,4,3,4,3,3,4,3,3,4,3,3,4,3,3,3,3,3,4,3,3,3,3,4,3,3,4,4,4,4,4,4,4,4,4,3,3,4,4,3,4,3,4,4,3,4,3,4,3,3,3,4,3,3,4,4,3,3,3,3,4,4,3,4,
3,4,4,4,4,4,3,4,3,3,4,3,3,4,4,3,3,4,3,3,3,4,4,4,4,4,3,3,4,4,3,3,4,4,3,4,3,4,3,4,3,4,4,4,4,3,3,3,3,4,3,3,4,4,4,4,3,3,3,3,3,3,4,4,3,3,4,4,3,3,4,3,3,4,4,4,3,4,4,4,4,4,3,3,3,4,3,4,4,3,4,3,4,3,4,3,3,3,4,4,3,4,3,4,3,4,3,4,4,3,3,4,4,3,4,3,4,3,3,4,4,4,4,3,4,3,4,4,
3,3,3,3,3,4,4,3,4,3,4,4,4,3,4,4,3,3,3,3,3,3,3,4,4,3,3,4,4,4,3,3,3,4,3,4,3,4,4,3,4,3,4,3,4,3,3,3,3,3,4,3,4,4,4,4,4,3,3,3,3,3,4,3,4,3,3,3,3,3,4,3,3,4,3,4,4,3,3,3,4,4,3,4,4,3,3,3,3,3,3,3,3,4,3,4,4,3,4,4,3,4,4,3,3,4,4,3,3,3,4,3,4,3,4,3,3,4,3,3,3,4,4,3,3,3,4,3,
4,4,4,4,3,3,4,3,4,3,3,4,3,3,4,4,3,4,4,4,3,3,3,4,3,4,4,3,3,3,3,4,3,3,4,4,3,4,4,4,4,4,3,3,4,4,3,4,4,3,4,4,4,4,4,4,4,4,3,4,4,4,4,4,4,4,4,4,4,4,4,4,4,3,4,3,3,4,3,3,4,3,3,4,3,3,4,4,4,3,3,3,3,3,4,4,3,4,3,3,4,3,4,4,4,3,3,4,3,4,4,3,4,3,3,4,3,3,4,3,4,3,3,3,4,4,3,4,
4,4,3,4,4,4,4,3,4,4,3,3,4,4,3,3,4,4,4,4,4,4,3,4,3,3,3,4,4,4,4,4,3,4,4,4,4,4,4,4,3,4,3,4,3,3,3,3,3,3,4,4,3,3,4,4,3,4,3,4,4,3,4,4,4,4,3,3,3,4,3,4,3,3,3,3,4,3,3,4,3,3,3,3,4,3,3,3,3,4,4,4,3,3,3,4,3,4,4,3,4,3,3,4,4,4,4,4,4,4,4,3,4,4,3,4,3,4,3,4,3,3,3,3,3,4,4,3,
3,3,3,3,3,4,4,3,3,4,4,4,4,4,3,4,4,4,4,4,3,3,4,3,4,4,3,3,4,3,3,4,3,4,4,3,4,3,4,3,4,4,4,3,3,4,4,3,4,4,3,4,4,4,3,4,3,4,4,4,3,3,4,3,4,3,4,4,3,4,3,3,3,3,4,4,3,4,3,3,4,4,3,3,3,3,4,3,3,3,4,4,3,3,4,3,3,4,4,3,3,3,4,3,3,4,3,4,4,3,3,4,4,3,3,4,3,3,3,3,3,3,3,3,3,3,4,3,
4,3,3,4,3,4,4,3,3,4,4,4,3,4,3,3,3,4,4,3,3,4,4,4,4,4,4,3,3,4,3,4,3,3,3,3,4,4,4,4,4,4,3,3,3,4,3,3,3,3,3,4,3,3,3,3,4,4,3,4,4,4,4,3,3,4,4,3,4,3,4,4,3,4,4,3,3,4,4,3,3,4,4,3,4,3,4,3,3,3,3,3,3,3,3,4,4,3,3,3,4,4,3,4,3,4,3,4,3,3,4,4,4,4,4,3,4,4,3,3,3,4,4,3,4,4,4,4,
3,4,4,3,4,3,4,4,4,4,4,3,4,4,4,4,3,3,3,3,4,3,4,4,3,3,4,3,3,4,4,4,3,4,4,3,4,3,3,4,3,4,3,4,3,3,4,4,3,3,4,4,4,4,3,4,4,3,3,4,3,3,3,3,3,3,4,3,4,3,3,4,4,4,3,4,3,4,4,4,3,4,4,4,4,4,4,3,3,4,4,3,3,4,4,4,4,4,4,4,3,3,4,4,4,4,4,3,3,3,4,4,3,4,4,4,4,3,3,3,4,4,3,4,3,4,3,3,
3,4,4,4,3,4,4,3,4,3,4,3,4,4,4,4,3,3,3,3,4,3,4,4,3,4,3,4,4,3,3,4,3,3,4,3,3,4,3,4,4,3,3,3,4,4,4,4,3,4,3,4,3,3,4,3,3,4,3,4,3,3,3,4,4,4,4,3,4,4,3,4,4,3,4,3,4,3,4,3,4,4,3,3,4,4,3,4,4,3,3,3,4,4,3,4,4,4,4,4,4,3,3,4,4,3,4,3,4,3,4,4,4,3,4,3,4,4,3,4,3,4,4,3,3,3,3,3,
3,3,3,3,4,4,4,3,4,4,4,3,3,4,3,4,4,4,4,4,3,4,4,4,3,3,3,3,3,3,4,3,4,3,3,4,4,4,4,4,4,4,3,3,3,4,3,4,4,3,4,3,3,4,4,4,4,4,3,3,3,3,4,4,4,3,3,4,3,3,3,3,4,3,4,3,4,3,3,4,3,4,3,3,4,4,3,4,4,4,3,3,3,3,4,4,4,4,4,3,4,3,4,3,3,4,3,3,4,3,3,3,4,3,4,4,3,4,4,4,4,3,3,3,4,4,3,4,
4,4,4,4,4,3,4,3,3,3,4,4,3,4,3,3,3,4,4,4,4,4,4,3,4,3,4,4,3,4,3,3,4,3,3,3,3,4,4,3,4,3,3,4,4,3,4,4,3,3,4,3,3,3,3,3,3,3,3,3,3,4,3,3,3,3,4,3,3,4,3,3,4,4,4,4,3,4,4,4,4,4,4,4,4,4,4,4,4,3,3,3,3,4,3,3,3,4,3,4,3,3,3,4,3,4,3,3,4,4,4,3,4,4,4,3,4,4,4,3,4,4,3,4,3,4,3,3,
4,4,4,4,4,4,4,4,4,3,3,4,3,4,3,4,3,4,4,4,4,4,4,4,4,4,3,3,3,4,4,4,4,3,4,3,3,3,4,4,4,3,4,3,4,3,4,3,4,3,4,4,4,4,4,3,4,3,4,4,4,3,4,4,3,4,4,4,3,3,3,3,4,3,4,3,4,3,4,4,3,3,3,4,3,4,4,3,4,4,3,4,4,4,3,4,4,4,4,4,3,4,4,3,4,4,3,4,4,4,4,4,4,4,3,3,3,3,4,4,3,3,3,3,4,4,3,4,
3,4,4,3,4,3,3,3,4,4,3,4,4,4,3,3,3,3,4,3,3,3,4,3,3,3,4,3,3,3,3,4,3,3,4,4,4,3,3,4,3,3,3,4,4,4,3,3,3,3,4,3,3,4,4,4,4,4,3,3,3,3,3,4,3,3,3,4,4,4,4,4,3,3,3,3,3,4,4,4,4,3,3,4,3,3,3,3,4,4,4,4,3,4,3,3,4,4,3,4,4,3,4,4,3,4,3,3,3,3,4,4,4,4,3,3,4,3,4,3,3,3,3,3,4,3,3,4,
4,3,3,3,4,4,3,3,4,4,4,4,3,4,4,4,3,3,3,3,3,4,4,3,4,3,3,3,3,4,4,4,4,3,3,3,3,3,4,3,3,3,3,3,4,4,3,4,3,3,4,3,4,3,4,3,3,4,4,4,4,3,3,3,4,4,4,4,4,3,4,4,3,3,4,3,4,4,3,4,3,3,3,4,3,3,3,4,3,4,3,4,3,4,3,4,3,4,4,4,4,4,3,4,3,3,3,3,3,4,4,3,3,3,3,4,3,3,3,4,4,4,3,4,4,4,3,3,
3,4,4,4,3,4,4,3,3,4,3,3,3,3,3,3,4,3,3,4,3,3,4,4,3,4,3,3,4,3,3,4,3,4,4,4,3,3,3,3,3,3,4,4,3,3,4,4,3,4,3,4,3,4,4,3,4,3,3,4,3,4,3,3,3,3,3,4,3,4,4,3,4,4,4,3,4,3,3,3,3,3,4,3,3,4,4,3,3,4,4,3,3,3,4,3,4,3,4,4,3,3,4,3,3,3,3,3,4,4,3,4,3,3,4,4,3,3,4,3,3,4,3,4,4,3,3,3,
3,3,4,3,3,3,4,4,3,4,4,4,3,3,4,3,4,3,4,3,3,4,4,4,3,4,4,4,4,3,4,4,4,4,3,4,3,3,4,3,3,4,3,3,3,3,4,3,4,3,3,3,3,4,4,3,3,4,4,3,3,4,3,3,3,3,3,4,4,3,4,4,3,4,3,3,4,3,3,4,4,4,4,4,3,3,4,3,3,3,3,4,3,4,3,4,4,3,3,4,4,3,4,4,3,4,4,3,3,3,4,3,3,4,3,3,3,4,3,4,3,4,4,3,3,3,3,4,
4,3,3,4,3,3,3,3,3,3,4,3,4,4,3,4,4,4,3,3,3,3,3,3,4,4,3,3,4,3,4,4,3,4,4,4,3,4,4,3,4,3,3,3,3,4,3,4,4,4,4,4,4,3,3,4,3,4,3,4,3,3,3,3,3,4,3,3,3,4,4,3,3,3,4,4,3,3,3,4,3,4,3,3,3,4,3,4,3,3,4,3,3,4,3,4,4,4,3,4,3,3,3,3,3,3,4,3,4,4,3,4,3,3,4,4,4,4,4,4,4,3,4,3,3,3,3,4,
3,3,4,3,4,3,4,3,3,4,3,4,3,3,4,3,3,4,4,3,4,4,4,3,3,3,4,4,4,4,4,4,3,3,4,3,4,3,3,4,4,4,4,4,3,3,3,4,4,4,4,3,3,4,4,4,4,3,3,3,4,4,4,4,3,3,3,3,3,4,4,3,4,3,4,3,4,4,3,3,4,3,4,4,4,4,3,3,4,4,4,4,4,4,4,4,3,3,4,4,4,3,4,4,3,3,4,4,3,3,4,4,3,3,4,3,3,3,4,3,4,4,3,3,4,4,4,4,
3,4,4,3,4,3,4,3,3,3,4,3,4,4,3,3,4,3,4,4,4,3,3,4,4,4,3,3,3,4,3,4,3,3,4,3,3,4,3,4,4,4,4,4,4,4,3,4,3,3,3,3,3,3,3,4,3,4,3,4,4,4,3,3,4,3,3,3,3,4,4,4,4,3,3,4,3,4,3,4,4,4,3,4,4,3,3,4,3,3,4,3,3,3,4,3,4,3,3,4,4,4,3,4,3,3,4,4,3,4,3,4,3,3,3,4,3,4,3,3,4,4,3,4,4,3,4,3,
3,4,3,3,3,4,3,3,3,4,4,4,4,4,4,3,3,3,3,4,3,3,3,4,3,4,3,3,3,3,3,3,3,4,4,4,4,3,3,4,3,3,3,4,3,4,3,4,4,3,4,3,3,3,3,4,3,3,4,3,3,3,3,3,3,4,4,4,4,3,4,4,3,4,3,4,4,4,4,4,3,3,4,4,4,4,4,4,3,4,3,3,4,4,4,3,3,3,4,3,4,4,3,4,3,3,3,3,3,3,4,4,4,4,3,4,3,4,4,4,4,4,3,3,4,3,4,4,
4,3,4,3,3,3,4,3,3,3,4,4,4,3,4,3,4,4,4,3,4,4,4,4,4,4,4,3,4,3,3,3,4,3,3,4,3,4,3,4,3,3,4,4,3,4,4,4,3,3,4,3,4,4,4,4,3,3,4,3,4,4,4,3,3,3,3,4,4,4,4,3,4,4,3,3,3,3,4,3,4,3,4,3,4,3,3,3,3,3,3,4,4,4,4,3,4,3,4,4,3,4,3,4,4,3,4,3,4,3,4,4,3,4,4,4,4,4,4,3,3,4,3,4,4,4,3,4,
3,4,4,4,4,3,3,3,3,3,3,3,3,3,4,4,3,4,3,3,3,3,4,4,3,3,4,3,4,3,3,3,4,3,3,3,3,3,4,4,4,4,3,4,4,3,4,3,4,4,3,4,3,3,4,4,4,4,3,3,4,4,4,4,3,3,4,4,4,4,3,4,3,3,3,3,3,4,4,4,4,3,4,3,3,4,3,3,3,3,3,4,4,3,4,4,3,3,4,4,3,4,4,3,4,4,4,4,3,4,4,4,4,3,3,3,4,4,3,4,3,3,4,3,3,3,3,3,
4,4,4,4,4,4,4,4,4,3,3,3,4,3,4,4,4,4,3,3,4,4,3,4,4,4,4,4,4,4,3,4,4,4,4,3,3,4,4,4,3,3,4,4,3,4,4,4,4,3,4,3,4,3,4,4,3,3,3,4,3,3,4,3,4,3,3,3,4,4,4,4,4,3,3,4,4,4,3,4,3,3,3,4,4,3,3,3,3,4,3,3,4,4,4,3,3,4,4,4,3,4,4,3,3,4,3,4,3,3,4,3,3,4,3,4,3,4,3,3,3,3,4,3,3,3,4,4,
4,4,4,3,4,3,3,3,4,3,3,4,4,3,3,4,4,4,4,4,3,4,4,3,3,4,3,4,4,4,3,4,4,4,4,3,4,3,3,3,3,3,3,3,3,4,3,3,4,3,4,3,3,4,3,3,3,3,4,3,4,3,4,4,3,4,4,4,4,4,3,3,4,4,4,4,4,3,3,4,4,4,4,3,3,3,4,4,4,4,4,3,3,3,4,4,4,4,4,4,4,3,4,3,3,4,3,3,3,4,3,4,3,4,4,4,4,4,4,4,3,3,4,4,4,3,4,3,
4,4,4,3,4,4,4,3,3,3,4,4,4,3,3,4,3,4,3,4,3,3,4,4,3,3,3,3,3,3,4,3,4,4,3,3,3,3,4,3,4,3,3,3,3,4,3,3,3,3,3,3,3,3,3,3,4,3,3,3,4,3,3,4,4,3,4,3,4,3,3,4,3,3,3,4,4,3,4,4,3,3,4,4,4,4,4,4,4,3,3,3,3,4,4,3,4,4,3,3,3,3,4,4,4,4,3,3,3,4,4,3,3,4,4,3,4,3,4,3,3,4,3,4,3,3,4,4,
3,3,3,3,3,3,4,4,4,3,4,4,3,3,4,4,3,3,4,3,3,3,3,4,3,4,4,3,4,4,4,3,3,3,3,4,3,3,4,3,4,3,3,3,4,4,3,4,3,3,3,4,4,3,3,4,4,4,3,3,3,4,4,4,3,4,3,3,4,3,4,3,4,4,3,3,3,4,3,3,3,3,3,4,4,3,3,4,3,4,3,3,3,3,4,3,4,4,4,4,3,3,4,4,3,3,3,3,4,3,4,4,3,4,4,4,3,4,4,3,4,4,4,4,3,4,4,3,
4,3,3,3,3,4,3,4,4,4,3,4,4,4,4,4,3,4,4,3,4,3,3,3,4,3,3,3,4,3,4,3,4,4,4,4,4,3,4,4,3,4,4,4,4,3,3,4,3,4,4,3,4,3,4,4,4,3,3,4,4,3,3,4,3,3,3,4,4,4,4,3,3,4,3,4,4,3,4,3,3,4,4,4,4,4,3,3,3,3,3,3,3,4,3,3,3,3,3,4,3,3,3,3,3,3,4,4,3,3,3,3,3,3,3,4,3,4,3,3,4,4,3,3,3,4,3,3,
4,3,3,3,3,3,3,4,3,3,4,4,4,4,4,4,3,3,3,3,4,4,4,3,3,4,4,4,3,4,3,4,3,3,3,4,3,3,4,3,3,3,3,4,3,3,4,3,4,4,3,4,4,4,4,4,4,3,3,4,4,4,4,4,4,4,4,3,4,4,4,4,4,4,4,3,4,4,4,3,4,4,3,3,4,3,4,3,3,3,3,3,3,4,3,3,3,3,4,4,3,3,4,4,3,4,3,3,4,4,4,4,3,4,3,3,3,4,3,4,3,4,4,4,4,3,3,4,
4,4,3,4,4,3,4,3,4,4,4,3,4,4,4,4,4,3,3,3,3,3,4,3,4,3,4,4,3,3,4,4,4,3,3,3,3,4,4,3,4,3,4,4,4,4,4,4,3,3,3,4,3,3,4,4,4,4,4,4,3,3,4,3,4,4,3,4,4,3,3,3,4,3,4,4,4,4,4,3,4,4,4,4,3,3,3,4,4,3,3,3,4,3,4,4,3,3,3,3,3,3,3,4,4,3,4,4,3,4,4,4,4,3,3,4,3,3,4,4,3,4,3,4,3,3,4,3,
3,3,3,3,4,3,3,4,3,4,4,3,4,4,4,4,3,3,3,4,3,3,4,3,4,4,3,4,4,4,4,4,4,4,4,3,4,4,3,4,4,3,3,4,3,4,4,4,4,3,3,3,4,3,4,4,3,3,3,4,4,3,3,4,3,4,4,3,3,4,4,4,4,4,4,4,4,4,3,3,4,3,4,3,4,4,4,3,3,3,3,4,3,4,3,4,4,3,3,4,3,3,3,3,3,4,4,3,4,4,3,4,4,4,4,4,4,4,3,3,3,3,3,3,3,3,3,3,
3,4,3,3,3,4,3,3,4,4,4,3,3,4,4,3,3,3,3,4,4,4,3,3,3,4,4,3,4,4,4,3,3,3,4,4,4,3,3,4,4,3,3,4,3,4,3,3,3,3,4,3,3,4,4,3,3,3,4,4,3,4,3,4,3,3,3,4,4,4,3,3,3,4,4,4,3,3,4,4,4,3,4,3,4,3,3,3,4,4,4,3,4,3,4,3,4,3,3,3,3,4,3,4,4,3,3,4,3,4,4,3,3,4,3,4,3,4,3,3,3,4,3,4,4,4,4,3,
3,4,3,4,4,4,3,4,4,4,4,4,3,3,3,3,4,3,3,3,4,4,4,3,3,4,4,4,3,4,3,3,3,3,4,3,4,3,4,3,3,4,3,3,3,4,4,3,3,3,3,4,3,4,3,4,4,3,3,3,4,4,4,3,4,4,4,4,3,3,4,4,3,4,3,3,3,4,3,4,3,4,4,3,3,3,3,4,3,3,3,3,3,3,3,3,4,3,4,3,4,3,4,4,3,3,3,3,4,4,3,3,4,4,3,3,3,4,3,4,4,3,3,3,4,4,4,3,
4,4,4,4,4,3,3,3,3,3,3,4,4,4,4,3,4,3,4,3,3,4,4,3,3,4,4,3,4,3,4,3,4,4,3,4,3,4,4,4,4,3,3,4,3,4,3,3,3,3,4,4,4,3,3,3,3,3,4,3,3,3,4,3,4,4,4,4,4,4,3,3,3,4,4,4,4,4,4,3,3,3,4,4,4,3,4,3,3,4,3,3,4,3,4,3,3,4,3,3,4,4,4,4,4,3,3,3,3,4,3,3,3,4,4,4,4,3,3,4,3,4,4,4,4,4,4,3,
4,4,3,4,4,3,3,4,3,3,3,4,4,3,3,3,4,3,4,4,3,4,4,4,4,4,4,4,3,4,4,4,4,3,4,4,4,3,3,4,3,4,4,3,3,3,4,4,4,3,3,4,3,3,4,3,4,4,4,3,3,3,3,3,3,4,3,3,4,4,3,3,4,3,3,4,3,4,3,3,4,4,3,3,4,3,3,4,4,4,4,4,4,3,3,3,4,4,4,3,3,3,3,4,4,4,3,4,4,3,3,4,3,4,3,3,4,4,4,3,4,3,3,4,4,4,3,4,
4,3,3,3,3,4,4,3,3,3,4,4,3,3,3,3,3,4,3,3,4,4,3,3,4,4,3,4,4,4,3,4,4,3,3,4,4,3,3,3,4,4,4,3,4,4,4,3,3,3,3,4,3,4,4,3,4,4,4,3,4,3,4,3,3,4,3,3,3,3,3,3,4,3,4,3,4,3,3,4,4,3,4,4,3,3,4,4,4,4,3,3,3,4,3,3,3,4,3,4,3,4,4,3,4,4,3,3,4,3,4,3,4,4,3,3,3,3,3,3,4,3,3,3,4,4,4,3,
4,4,4,3,3,4,4,3,4,4,4,4,4,4,4,3,3,3,3,3,3,4,4,4,3,3,4,3,3,4,3,3,4,3,3,4,3,3,4,3,4,3,4,4,3,4,4,3,4,4,3,4,3,4,3,3,3,3,3,4,4,4,3,4,3,3,3,4,4,3,4,3,3,4,4,3,4,3,4,4,3,3,4,3,3,4,4,3,3,4,3,3,3,4,3,4,3,4,4,3,4,3,4,4,4,4,3,4,3,3,3,4,4,3,3,4,3,4,4,3,3,3,3,3,3,4,3,4,
4,3,3,4,4,4,3,3,4,3,4,3,3,3,4,3,4,4,3,3,4,4,3,3,4,4,3,3,4,4,4,3,3,4,3,4,3,4,4,3,3,3,4,4,4,3,3,3,3,3,3,3,4,3,3,4,4,3,4,4,4,3,4,4,3,3,3,3,4,3,4,4,3,4,3,3,3,3,4,4,4,4,3,3,3,4,3,3,3,3,4,3,3,3,3,4,4,4,3,3,4,4,3,4,4,4,4,3,4,3,4,3,4,4,4,3,4,3,4,3,4,3,4,3,4,3,3,3,
4,3,3,3,3,4,4,4,4,4,4,3,4,4,3,3,4,3,4,3,4,4,3,4,4,3,4,4,3,3,3,3,3,4,3,3,4,4,3,3,3,3,3,3,4,4,3,3,4,3,4,4,3,4,3,4,4,4,4,3,4,3,4,3,4,4,4,3,4,4,3,3,4,3,3,3,4,3,4,3,3,3,3,4,3,4,3,3,4,4,3,3,3,4,4,4,4,3,4,4,4,3,4,3,4,3,4,3,3,3,4,4,3,4,4,4,3,3,4,3,4,4,4,3,4,3,4,3,
3,3,4,4,3,3,4,3,3,4,4,4,4,4,4,3,4,3,3,3,3,4,4,3,3,4,4,4,3,4,3,4,4,4,4,4,3,4,4,3,4,3,3,3,4,4,3,4,3,4,4,3,3,4,3,4,3,4,3,3,4,3,3,3,4,3,4,3,4,3,4,4,3,3,3,3,4,4,3,3,4,3,3,3,4,4,4,4,3,4,3,3,3,4,3,3,3,3,4,4,3,3,4,3,3,3,4,3,4,4,4,4,3,3,3,3,3,4,4,3,3,4,4,4,4,4,3,3,
4,3,3,3,4,4,4,4,3,4,3,3,4,4,4,4,3,3,3,3,3,3,3,4,3,3,3,3,3,4,3,4,3,4,3,4,4,3,3,3,4,4,3,4,4,4,3,3,3,3,3,4,4,4,3,4,3,4,4,4,3,4,3,4,3,4,4,4,3,4,3,3,4,3,4,3,3,4,3,3,4,4,4,4,3,3,4,4,4,3,3,3,4,3,3,3,3,3,3,3,4,4,4,4,4,3,3,3,4,3,3,4,4,3,4,4,3,4,4,3,3,4,3,3,4,3,4,3,
3,3,3,3,3,4,4,4,3,3,4,4,4,4,4,4,3,4,4,4,4,3,4,4,3,3,3,3,4,3,4,3,3,4,3,3,3,4,3,4,3,4,4,3,4,4,4,3,3,3,4,3,3,3,3,4,4,3,3,3,3,4,3,4,3,3,4,4,4,4,4,3,3,3,3,3,4,3,3,4,4,4,4,4,3,3,4,4,3,4,3,3,3,4,4,3,4,3,4,3,3,3,3,4,4,3,3,3,3,4,3,4,3,3,4,3,4,3,4,4,3,3,4,3,3,3,3,4,
3,3,3,4,4,4,3,3,3,3,3,4,4,3,4,4,3,4,4,4,4,4,3,3,3,3,4,4,3,3,3,3,4,3,3,3,3,3,4,4,4,3,4,4,3,4,4,3,3,3,4,3,3,4,3,3,3,4,3,3,4,3,3,4,4,4,3,3,4,3,4,4,4,3,3,4,3,3,3,4,3,4,4,4,3,4,4,4,3,3,3,3,4,3,4,3,3,4,4,3,4,4,3,3,4,3,4,4,3,4,3,4,4,4,4,3,3,3,4,3,3,4,3,3,4,4,4,3,
3,3,4,3,4,4,3,3,3,4,4,4,4,4,3,4,4,3,3,3,3,3,4,3,3,4,4,3,3,4,3,3,4,4,3,3,3,3,3,4,4,3,4,4,3,4,4,4,3,4,3,3,3,4,3,4,4,4,3,3,4,4,4,3,4,3,4,3,3,3,3,4,3,3,4,3,4,4,3,3,3,4,4,4,3,3,3,3,3,4,4,3,3,3,4,4,4,3,4,3,3,4,3,4,3,3,3,4,4,3,4,4,4,3,4,3,4,3,4,3,3,4,3,4,3,4,4,4,
4,4,3,4,4,3,3,4,3,3,3,4,4,3,3,3,3,4,4,4,3,3,3,3,4,4,4,4,3,4,3,4,3,4,3,4,3,3,3,3,4,4,3,4,3,4,4,3,3,4,3,3,4,3,3,3,3,3,4,4,3,4,3,4,3,4,3,4,4,4,3,3,4,4,4,4,4,4,3,3,4,4,4,3,3,4,3,4,4,3,3,4,4,3,4,3,3,3,3,3,4,3,4,3,3,3,3,4,4,3,3,4,3,4,3,3,4,4,3,4,3,3,3,3,3,4,4,3,
4,4,4,4,3,4,3,3,4,3,4,4,4,4,4,3,4,4,4,4,4,3,3,3,4,3,3,4,4,4,4,4,4,4,4,4,3,3,4,4,4,4,3,4,3,4,4,4,4,4,4,3,4,3,3,4,4,4,4,4,3,4,3,4,3,4,3,4,4,4,3,3,4,3,3,3,3,3,4,4,4,4,4,4,3,3,4,3,3,3,4,4,3,3,3,4,4,4,3,4,3,4,3,4,4,3,3,4,4,4,3,3,3,3,3,4,4,3,4,4,3,4,4,4,4,3,4,3,
4,4,3,3,4,4,3,4,3,4,3,4,3,3,3,4,4,3,4,3,4,4,3,3,3,3,4,3,3,4,3,3,4,4,4,3,4,4,4,4,4,4,4,3,4,3,4,4,4,3,4,4,3,4,4,3,3,3,3,3,3,3,4,4,3,3,4,4,3,4,3,3,4,3,4,3,4,4,4,4,4,4,4,3,3,4,4,4,3,3,3,4,3,3,4,4,4,3,3,4,3,4,3,3,3,3,4,4,4,4,4,4,3,4,4,3,3,4,3,4,4,3,4,3,3,4,3,4,
4,3,4,3,3,3,3,3,3,4,3,4,4,4,4,3,3,3,4,4,4,3,4,4,3,3,3,3,3,3,4,4,3,3,4,3,3,4,3,4,4,3,3,4,4,4,3,3,3,3,3,3,4,3,4,4,4,3,4,3,3,4,3,4,3,3,3,4,3,3,4,3,4,4,3,4,4,4,4,3,3,3,3,4,3,4,4,4,4,3,4,3,4,3,3,3,3,4,3,4,3,4,4,3,4,3,4,4,3,4,3,4,3,3,3,4,4,3,4,4,4,3,3,4,4,3,4,4,
3,4,4,3,4,4,3,3,4,4,4,3,3,3,3,3,4,3,4,3,4,4,4,4,4,3,4,4,3,3,4,3,3,4,3,4,4,4,3,4,4,4,4,4,3,4,3,3,4,3,4,4,4,4,3,4,4,4,4,3,3,4,4,3,3,3,4,4,4,3,4,3,4,3,3,4,4,4,3,4,3,4,4,4,4,3,4,4,4,4,4,3,4,4,4,3,4,3,4,3,4,3,3,4,3,4,3,4,4,3,3,4,4,4,4,4,4,3,4,4,4,4,4,4,3,4,3,4,
4,3,4,4,3,3,4,3,4,4,3,4,3,4,4,3,4,3,4,4,3,3,3,4,3,4,3,4,3,4,4,4,4,4,3,3,4,4,4,3,3,4,3,3,3,3,4,4,4,3,4,3,3,3,4,4,4,4,4,4,3,3,3,4,4,4,3,4,3,4,3,4,3,4,4,4,3,3,4,4,3,4,4,3,3,3,3,3,4,4,3,3,4,3,3,3,4,4,4,3,4,4,4,4,4,4,4,3,3,3,4,4,3,3,3,3,3,4,3,4,3,3,4,4,4,3,3,4,
4,4,4,3,4,3,3,4,3,4,3,3,4,3,3,3,3,4,4,3,4,4,3,3,3,3,4,3,3,4,3,3,3,3,3,3,3,3,4,3,3,4,3,3,3,4,3,4,4,4,4,3,4,3,3,4,4,4,3,4,4,3,4,3,4,3,4,4,3,3,3,4,4,3,3,3,3,3,3,4,4,4,3,4,4,4,3,3,3,3,4,3,4,3,3,4,3,4,3,3,3,4,3,3,3,3,3,4,3,4,4,3,4,4,4,3,3,3,4,3,4,4,3,4,4,3,4,4,
3,3,3,4,3,3,3,4,3,4,4,3,3,4,3,4,4,4,4,4,4,4,4,3,4,3,3,3,3,4,3,3,3,3,3,4,3,3,4,3,4,3,3,4,4,3,4,4,4,4,4,4,3,3,4,3,4,4,3,3,3,4,3,3,3,3,3,3,4,3,4,3,4,3,3,3,3,3,3,3,3,3,3,3,3,3,4,4,4,3,4,4,4,4,4,3,3,3,3,3,4,3,4,3,3,4,3,3,3,4,3,3,3,4,3,4,3,4,4,4,4,4,3,3,4,3,3,4,
3,3,3,3,4,4,4,3,4,4,4,3,3,3,4,4,4,3,4,4,3,4,4,3,4,4,3,4,3,4,3,3,4,3,4,3,3,4,3,3,3,4,4,3,3,3,3,4,3,3,3,3,4,4,4,4,4,3,4,4,4,3,4,3,4,3,4,4,3,4,4,3,4,3,3,4,4,3,3,4,3,4,4,3,4,4,4,3,4,3,3,3,3,4,3,4,3,3,4,3,4,4,3,3,3,3,3,4,4,3,4,3,3,4,4,4,4,3,3,4,4,4,4,4,4,3,4,4,
3,3,3,4,4,4,3,4,4,3,4,3,4,3,4,4,3,3,4,3,3,3,3,4,4,3,3,3,3,3,3,4,3,3,3,4,3,3,4,3,4,4,3,4,3,3,3,3,3,3,4,3,3,4,3,4,3,3,3,4,3,3,4,3,4,4,3,4,4,4,4,3,3,4,4,4,4,3,3,3,4,3,3,4,4,4,3,4,3,3,3,4,4,4,3,3,4,4,4,4,3,3,4,3,3,4,3,4,4,4,4,4,4,3,3,3,3,4,4,3,4,3,4,3,3,4,4,4,
3,3,3,4,4,4,4,3,3,3,3,4,3,4,3,3,4,4,4,4,4,3,3,3,3,4,3,3,3,3,4,3,4,4,3,4,3,4,3,3,4,4,4,4,4,3,4,4,4,4,3,3,4,3,4,4,4,4,4,3,4,3,4,3,3,4,3,4,3,4,4,4,4,4,3,4,3,4,4,3,3,4,3,4,3,4,4,4,4,3,4,4,3,3,4,3,4,4,3,3,3,4,3,3,4,3,3,3,4,4,3,4,3,4,3,4,4,4,4,3,4,3,4,4,3,4,3,4,
4,4,3,3,4,3,3,4,4,3,3,4,3,4,4,4,4,4,3,4,3,3,4,4,4,3,3,3,3,4,4,4,3,3,3,3,4,3,3,4,4,3,4,4,3,4,3,4,4,3,3,4,4,4,3,4,3,3,4,3,3,3,4,4,4,4,4,3,3,4,3,3,4,4,3,3,4,3,3,3,3,4,4,4,3,4,3,4,4,3,3,4,3,4,3,4,4,3,4,3,4,3,4,3,4,3,3,3,4,3,4,3,4,3,3,3,3,3,4,3,4,4,3,3,4,3,3,3,
4,3,4,3,4,3,3,3,4,4,4,4,3,3,3,4,4,4,3,4,4,4,4,4,4,3,3,3,4,3,3,4,3,3,4,3,4,3,4,3,4,4,3,4,4,3,4,3,4,3,3,3,3,4,4,4,3,4,4,4,3,3,4,4,4,3,4,3,3,3,4,3,4,3,3,4,3,3,4,4,4,3,3,3,3,3,4,3,3,4,4,3,4,4,3,3,3,3,4,3,3,4,3,3,3,3,4,4,4,3,4,4,4,4,3,4,3,3,4,3,4,3,4,4,3,4,4,4,
4,3,4,3,3,4,3,4,4,4,4,4,4,3,4,4,4,3,3,3,3,3,4,3,4,4,3,3,3,3,4,4,4,4,4,4,3,4,3,4,4,3,4,4,3,4,3,3,3,3,3,4,4,4,3,3,4,4,4,3,3,3,4,4,3,4,3,3,3,3,3,3,4,4,4,3,3,4,3,4,4,4,3,4,3,3,4,3,3,4,4,3,3,3,4,4,4,3,4,4,3,4,4,4,3,3,3,3,3,3,3,4,4,4,3,4,3,3,3,3,4,3,3,4,3,4,4,4,
4,3,3,3,4,4,4,4,4,3,3,4,3,3,3,4,4,4,4,3,3,3,4,3,3,4,3,3,4,4,4,4,4,3,4,4,4,3,4,4,4,4,4,4,3,3,3,4,4,3,4,4,4,3,3,4,3,3,3,3,4,4,3,4,3,4,4,4,3,4,3,3,3,4,4,3,4,3,4,3,3,3,4,4,3,3,3,4,4,4,3,3,4,3,4,4,4,3,3,4,4,4,3,4,3,3,3,3,4,3,4,4,4,4,3,3,4,4,3,4,4,3,3,3,3,3,3,3,
3,3,3,3,4,4,3,3,3,4,3,4,4,3,3,4,3,4,4,4,3,4,3,4,4,3,4,3,4,4,4,4,3,3,3,4,3,4,3,4,3,4,4,4,4,4,4,3,3,3,4,3,3,4,3,4,3,3,3,3,3,3,4,3,3,4,4,4,4,4,3,3,4,4,3,4,4,3,3,4,3,4,3,4,4,4,3,3,3,3,3,3,4,3,4,4,3,3,4,4,3,3,4,3,3,3,4,4,3,4,3,3,4,3,4,3,4,3,3,4,3,3,3,3,4,3,3,3,
4,3,4,3,3,4,3,3,4,4,4,4,4,3,4,4,4,4,3,4,4,4,4,4,3,4,4,3,4,4,4,4,3,3,3,3,3,3,3,3,4,4,4,4,3,4,3,4,4,3,3,3,4,3,3,4,3,3,4,3,3,4,3,4,4,4,3,3,4,3,3,4,4,3,3,4,3,3,3,3,4,4,3,3,4,4,4,4,4,4,4,4,3,3,3,4,4,3,3,4,4,4,4,4,4,4,4,4,3,3,3,4,4,4,4,3,3,4,3,3,3,3,4,3,3,4,3,4,
4,3,4,4,4,4,3,3,4,3,3,4,3,4,3,3,4,4,4,3,4,3,3,4,4,3,3,4,4,3,3,4,3,3,4,4,3,3,4,4,4,4,3,4,3,3,3,4,4,3,3,4,3,4,4,4,4,4,4,3,4,3,3,4,3,3,4,4,4,4,3,3,3,4,4,3,3,4,3,3,4,3,4,3,4,3,4,4,4,3,4,3,4,3,3,4,3,3,3,4,3,3,4,3,4,3,3,4,4,3,3,4,4,3,3,3,3,4,3,4,4,3,3,3,4,3,3,3,
4,4,4,3,3,3,4,3,4,4,4,4,4,3,3,3,3,3,3,3,3,3,4,4,4,4,3,4,3,4,4,3,4,4,4,3,4,3,4,4,4,4,4,3,4,3,3,4,3,3,4,4,4,4,3,3,4,3,4,4,3,3,3,3,4,3,3,3,4,4,3,4,3,4,3,4,3,4,3,3,3,3,3,3,3,4,4,3,3,4,4,4,3,3,4,4,3,3,3,4,4,4,4,4,3,3,3,4,4,3,4,3,3,3,4,3,4,3,3,4,4,4,4,4,4,3,3,3,
4,4,3,3,4,4,3,3,3,3,4,4,3,3,4,3,4,4,3,4,4,4,3,3,3,4,4,3,3,3,4,4,3,4,4,3,4,3,4,3,4,4,3,3,3,3,4,4,3,3,4,4,4,3,3,4,4,4,3,3,4,3,4,3,3,3,3,3,4,3,4,3,3,3,3,4,3,4,3,3,3,4,3,4,4,4,4,4,4,4,3,3,3,4,3,3,4,4,4,3,4,3,4,4,4,3,3,4,4,3,4,3,4,4,4,4,3,4,3,4,3,4,3,4,4,4,4,3,
3,3,3,4,4,3,4,3,3,3,4,3,4,4,4,4,3,3,4,4,3,4,4,3,4,4,4,4,3,4,4,3,4,3,3,4,3,3,3,4,4,3,4,3,3,3,4,3,4,4,3,4,3,3,4,4,4,4,3,4,3,3,4,4,4,3,4,4,3,3,3,4,4,4,3,3,3,3,3,3,3,3,3,3,4,3,3,3,4,4,3,4,3,3,3,3,3,4,4,3,3,3,3,3,4,4,3,4,4,4,4,4,4,3,4,4,4,4,3,3,4,3,3,3,4,3,3,4,
4,3,3,4,3,4,3,3,4,3,3,4,4,3,3,4,3,4,3,3,4,4,4,4,4,3,4,3,3,3,3,3,3,4,3,4,4,4,4,3,4,3,4,3,4,3,4,3,4,3,4,3,4,4,3,4,4,3,4,4,3,3,3,3,3,3,3,4,4,4,3,4,4,3,3,4,4,4,4,3,3,3,3,4,4,3,4,3,4,3,3,3,4,4,3,3,3,4,3,3,4,4,4,4,4,3,3,3,4,4,4,3,3,3,3,4,4,3,3,3,3,3,3,3,3,3,3,3,
4,4,3,4,3,3,4,4,4,4,4,4,3,3,4,3,4,3,4,3,3,4,4,4,4,4,4,4,4,3,4,3,4,4,4,4,3,4,3,4,3,3,3,4,3,3,4,3,4,4,3,4,4,4,4,3,4,4,3,4,4,4,3,3,4,4,4,3,3,3,4,4,3,4,3,4,4,4,3,4,4,4,3,4,3,4,3,3,4,4,3,4,4,3,4,3,4,3,4,3,3,3,4,4,4,4,3,4,4,3,3,4,3,3,4,4,4,3,4,4,3,3,3,3,3,3,4,3,
3,3,4,4,3,4,4,4,3,3,4,4,3,4,3,4,3,4,3,4,4,3,3,4,3,3,3,3,4,3,3,4,3,3,3,3,4,4,4,3,3,3,3,3,3,3,4,4,4,4,4,4,4,4,3,3,4,4,3,4,3,3,4,3,3,3,3,3,4,4,3,4,3,3,3,3,4,3,3,3,3,3,3,4,4,4,3,3,4,4,3,4,3,3,4,3,4,3,3,3,3,3,3,4,4,3,3,3,3,4,4,4,3,4,3,4,3,4,3,4,4,4,4,3,4,4,3,4,
4,3,3,4,3,4,3,4,4,4,4,3,3,3,3,4,4,3,3,3,4,4,3,4,3,3,4,3,4,4,4,4,4,4,4,3,3,4,4,3,3,4,3,3,4,4,3,4,3,4,4,4,4,3,4,3,4,4,3,4,3,3,4,3,3,4,4,4,3,4,3,4,3,3,4,4,4,3,3,3,3,4,4,4,4,4,3,4,3,3,4,3,4,3,4,4,3,3,3,4,3,3,3,4,4,4,4,4,3,3,4,4,3,3,3,4,4,4,3,3,3,3,4,3,3,4,3,3,
4,4,4,4,4,3,3,3,3,3,4,3,3,3,4,3,3,4,3,3,3,3,3,4,3,4,4,3,4,4,4,3,4,3,4,3,3,3,4,3,4,4,3,3,3,3,4,4,4,4,3,4,3,4,3,3,3,3,3,4,4,4,4,4,3,4,4,3,3,3,4,4,4,4,3,4,4,4,4,3,4,4,4,4,3,3,4,3,4,4,4,3,4,3,3,3,4,4,3,4,4,4,4,4,4,4,3,4,4,3,3,3,3,3,3,3,4,3,3,4,3,3,4,4,4,4,3,3,
3,4,4,4,4,3,4,4,4,3,3,3,3,4,3,3,3,3,3,3,4,3,4,3,3,4,3,4,4,3,3,4,4,4,3,3,4,3,3,4,3,3,4,4,4,3,3,3,3,4,3,3,3,4,4,3,4,3,3,4,3,3,4,4,4,3,4,4,3,4,4,3,4,3,3,3,4,3,4,4,3,3,4,4,3,4,3,4,4,3,4,3,3,4,3,3,4,3,4,4,4,4,4,4,3,4,4,4,4,3,3,4,3,3,4,3,3,3,3,4,3,3,3,3,3,3,3,3,
4,3,3,3,3,3,3,3,4,4,4,4,3,4,3,3,3,4,3,3,4,3,3,3,4,3,4,3,3,4,3,4,3,4,3,3,4,3,3,3,4,4,3,3,4,3,3,3,4,4,4,4,3,3,3,3,4,3,4,4,3,3,4,4,4,3,4,3,3,4,3,3,4,3,4,3,3,4,3,4,4,4,4,4,4,3,4,4,3,4,4,4,4,3,3,3,3,4,4,3,3,4,4,3,3,4,4,3,4,4,4,4,4,3,4,4,4,4,4,3,3,4,3,3,3,4,3,3,
3,3,3,3,4,3,3,3,3,4,3,4,4,3,3,3,4,3,4,4,4,3,3,3,3,3,3,3,3,3,4,3,3,3,3,3,3,4,3,3,3,3,3,4,3,4,3,4,4,4,4,3,4,3,3,4,4,3,4,4,4,4,3,4,3,3,3,3,3,3,4,4,3,3,4,3,4,3,3,3,4,3,3,4,3,3,4,4,3,3,3,3,3,3,4,4,3,3,4,3,3,3,3,3,4,3,4,3,4,3,4,3,4,4,4,4,3,4,3,3,4,4,3,4,4,3,4,4,
3,3,4,3,4,4,4,4,4,3,3,4,3,4,3,3,4,3,3,3,4,4,4,4,4,3,4,3,4,3,3,4,4,3,4,3,3,4,4,4,3,4,3,4,3,3,3,3,4,4,3,3,3,3,4,4,3,4,4,4,3,3,3,3,4,3,4,4,4,4,4,4,4,3,4,3,3,4,3,3,3,4,3,3,4,3,3,4,4,4,4,4,4,3,4,4,3,4,3,3,4,3,4,4,4,4,3,3,3,4,3,3,3,4,3,3,4,4,4,4,4,4,3,4,3,4,3,4,
3,3,4,3,4,4,4,3,4,3,4,3,4,4,4,3,4,4,4,4,3,3,4,4,4,4,4,3,3,4,4,3,4,4,3,3,4,4,4,3,4,3,3,4,3,3,3,4,4,3,3,3,3,4,3,4,3,3,3,4,4,4,4,3,3,3,4,3,4,3,4,4,3,4,4,3,3,3,4,4,3,4,3,3,4,4,3,3,4,4,4,3,3,4,4,3,3,3,4,4,3,3,3,3,4,4,4,3,4,4,4,4,3,3,4,3,3,4,3,4,4,3,3,4,3,3,4,4,
4,3,4,3,4,4,4,4,4,4,4,3,4,3,3,3,3,3,3,3,4,3,3,4,4,4,3,3,3,4,4,3,3,4,3,4,3,3,4,3,4,4,3,3,3,4,4,4,3,4,3,3,4,3,3,3,3,3,4,3,4,3,3,3,4,3,3,4,4,3,4,3,3,3,3,3,3,3,4,4,4,3,4,3,4,4,3,3,4,3,4,3,4,4,4,4,4,3,3,3,3,4,3,4,4,3,3,4,3,3,4,4,3,3,4,3,3,3,4,3,4,4,4,4,4,3,3,3
</data>
 </layer>
 <objectgroup id="2" name="Camada de Objetos 1"/>
</map>
